vendor/shopware/storefront/Resources/app/storefront/dist/assets/icon/default/triangle.svg

<svg xmlns="http://www.w3.org/2000/svg" width="24" height="24" viewBox="0 0 24 24">
  <path fill="#758CA3" fill-rule="evenodd" d="M12,2.47213595 L2.23606798,22 L21.763932,22 L12,2.47213595 Z M13.7888544,1.57770876 L23.5527864,21.1055728 C24.0467649,22.0935298 23.6463162,23.2948759 22.6583592,23.7888544 C22.3806483,23.9277098 22.0744222,24 21.763932,24 L2.23606798,24 C1.13149848,24 0.236067977,23.1045695 0.236067977,22 C0.236067977,21.6895098 0.308358161,21.3832837 0.447213596,21.1055728 L10.2111456,1.57770876 C10.7051241,0.589751769 11.9064702,0.189303076 12.8944272,0.683281573 C13.281482,0.876808975 13.595327,1.19065396 13.7888544,1.57770876 Z"/>
</svg>

<svg xmlns="http://www.w3.org/2000/svg" width="24" height="24" viewBox="0 0 24 24"><path fill="#758CA3" fill-rule="evenodd" d="M12 2.4721 2.236 22h19.528L12 2.4721zm1.7889-.8944 9.7639 19.5279c.494.988.0935 2.1893-.8944 2.6833a2 2 0 0 1-.8945.2111H2.2361c-1.1046 0-2-.8954-2-2a2 2 0 0 1 .2111-.8944l9.764-19.5279c.494-.988 1.6953-1.3884 2.6832-.8944a2 2 0 0 1 .8945.8944z"/></svg>
